X:1
T:The Cobbler (Cormac Begley version)
R:polka
M:2/4
L:1/8
K:Emin
|: EF| GE eE|GA B>A|GE eE|F/E/D/F/ AB/A/|
GE eE|GA B>A|GA B/A/G|E2:|
|:EA| BA/B/ ed|BA B>A|GE eE|F/E/D/F/ AG/A/|
BA/B/ ed|BA B>A|GA B/A/G|E2 :|

